**kern	**kern	**fb
*part1	*part1	*part1
*staff2	*staff1	*
*I"Piano	*	*
*clefF4	*clefG2	*
*k[f#c#]	*k[f#c#]	*
=1	=1	=1
.	(16qqgg/	.
2A	8ff#L)	.
.	16eeL	.
.	16ddJJ	.
.	2eeT	.
4AA	.	.
=	=	=
2D	2dd	.
4r	4d	.
=	=	=
4r	2a	.
4F#	.	.
4D	4d	.
=	=	=
4C#	2a	.
4AA	.	.
4D	4f#	.
=	=	=
4B	2dd	.
4G	.	.
4A	4a	.
=	=	=
4D	2ff#	.
4A	.	.
4F#	4a	6
=	=	=
2.C#	(4b	7
.	4a)	6
.	4g	5
=	=	=
4D	[4f#	5 3
4G	12f#L]	6
.	12e	.
.	12f#J	.
4B	12gL	6 4
.	12f#	.
.	12eJ	.
=	=	=
.	4qqd/	5 3
2A	2c#	.
4AA	4r	.
=	=	=
*-	*-	*-
!!!system-decoration: {(s1,s2)}
